symbols/web/content_copy/materialsymbolssharp/content_copy_wght200_48px.svg

<svg xmlns="http://www.w3.org/2000/svg" height="48" width="48"><path d="M14.85 36.15V7.2h22.9v28.95Zm1.55-1.55h19.85V8.75H16.4Zm-6.65 6.6V14.7h1.55v25h18.8v1.5Zm6.65-6.6V8.75 34.6Z"/></svg>

<svg xmlns="http://www.w3.org/2000/svg" height="48" width="48"><path d="M14.85 36.15V7.2H37.75V36.15ZM16.4 34.6H36.25V8.75H16.4ZM9.75 41.2V14.7H11.3V39.7H30.1V41.2ZM16.4 34.6V8.75V34.6Z"/></svg>
